X: 946
T: All Covered With Moss
R: jig
M: 6/8
K: Gmajor
c2 E EDE|GED DED|cBc EDE|~c3 dcA|
GED DED|DED DEF|~E3 GAB|1 cdc BAG:|2 cdc BAB||
~G3 BGB|AGA BGE|GFG BGB|cdc BAB|
[1 ~G3 BGB|AGA BAB|~d3 dcB|cdc BAB:|
[2 GBd gdB|~d3 dBA|GED GAB|cdc BAG||

